svg/NEPAnode-EnergyInfrastructure/Solar_Icon.svg

<?xml version="1.0" encoding="UTF-8" standalone="no"?>
<!-- Created with Inkscape (http://www.inkscape.org/) -->

<svg
   xmlns:dc="http://purl.org/dc/elements/1.1/"
   xmlns:cc="http://creativecommons.org/ns#"
   xmlns:rdf="http://www.w3.org/1999/02/22-rdf-syntax-ns#"
   xmlns:svg="http://www.w3.org/2000/svg"
   xmlns="http://www.w3.org/2000/svg"
   xmlns:xlink="http://www.w3.org/1999/xlink"
   xmlns:sodipodi="http://sodipodi.sourceforge.net/DTD/sodipodi-0.dtd"
   xmlns:inkscape="http://www.inkscape.org/namespaces/inkscape"
   version="1.1"
   width="250"
   height="250"
   viewBox="0 0 0.34722222 0.34722222"
   id="svg2"
   inkscape:version="0.48.4 r9939"
   sodipodi:docname="Solar_Icon.svg">
  <sodipodi:namedview
     pagecolor="#ffffff"
     bordercolor="#666666"
     borderopacity="1"
     objecttolerance="10"
     gridtolerance="10"
     guidetolerance="10"
     inkscape:pageopacity="0"
     inkscape:pageshadow="2"
     inkscape:window-width="1360"
     inkscape:window-height="744"
     id="namedview17"
     showgrid="false"
     inkscape:zoom="2.232"
     inkscape:cx="125"
     inkscape:cy="37.696918"
     inkscape:window-x="0"
     inkscape:window-y="24"
     inkscape:window-maximized="1"
     inkscape:current-layer="svg2" />
  <title
     id="title4">SVG drawing</title>
  <desc
     id="desc6">This was produced by version 4.1 of GNU libplot, a free library for exporting 2-D vector graphics.</desc>
  <metadata
     id="metadata3395">
    <rdf:RDF>
      <cc:Work
         rdf:about="">
        <dc:format>image/svg+xml</dc:format>
        <dc:type
           rdf:resource="http://purl.org/dc/dcmitype/StillImage" />
        <dc:title>SVG drawing</dc:title>
      </cc:Work>
    </rdf:RDF>
  </metadata>
  <defs
     id="defs3393">
    <linearGradient
       id="linearGradient8138">
      <stop
         id="stop8140"
         style="stop-color:#ffffff;stop-opacity:0"
         offset="0" />
      <stop
         id="stop8142"
         style="stop-color:#000000;stop-opacity:0"
         offset="1" />
    </linearGradient>
    <radialGradient
       cx="0.17569096"
       cy="0.17470571"
       r="0.16916668"
       fx="0.17569096"
       fy="0.17470571"
       id="radialGradient8144"
       xlink:href="#linearGradient8138"
       gradientUnits="userSpaceOnUse" />
  </defs>
  <text
     x="-0.032071669"
     y="0.3455472"
     id="text7140"
     xml:space="preserve"
     style="font-size:0.0555556px;font-style:normal;font-variant:normal;font-weight:normal;font-stretch:normal;line-height:125%;letter-spacing:0px;word-spacing:0px;fill:#000000;fill-opacity:1;stroke:none;font-family:Energy Infrastructure;-inkscape-font-specification:Energy Infrastructure"><tspan
       x="-0.032071669"
       y="0.3455472"
       id="tspan7142"
       style="font-size:0.59036261px" /></text>
  <path
     d="M 329.28829,363.4657 A 105.41456,102.94666 0 1 1 118.45918,363.4657 105.41456,102.94666 0 1 1 329.28829,363.4657 z"
     transform="matrix(0.00161659,0,0,0.00168318,-0.18770819,-0.44043665)"
     id="path3037"
     style="opacity:0;fill:#000000;fill-opacity:1;fill-rule:nonzero;stroke:#000000;stroke-opacity:1" />
  <path
     d="M 296.14793,366.28613 A 58.877029,87.434151 0 1 1 178.39388,366.28613 58.877029,87.434151 0 1 1 296.14793,366.28613 z"
     transform="matrix(0.00161659,0,0,0.00168318,-0.18770819,-0.44043665)"
     id="path3807"
     style="opacity:0;fill:#000000;fill-opacity:1;fill-rule:nonzero;stroke:#000000;stroke-width:2;stroke-linejoin:round;stroke-miterlimit:4;stroke-opacity:1;stroke-dasharray:none" />
  <g
     style="font-size:0.0555556px;font-style:normal;font-variant:normal;font-weight:normal;font-stretch:normal;line-height:125%;letter-spacing:0px;word-spacing:0px;fill:#000000;fill-opacity:1;fill-rule:evenodd;stroke:none;font-family:Energy Infrastructure;-inkscape-font-specification:Energy Infrastructure"
     id="text8169">
    <path
       d="M 0.17634926,0.12613916 C 0.19073793,0.12613938 0.20279347,0.13119493 0.21251593,0.14130583 0.22262679,0.15102825 0.22768234,0.16308379 0.2276826,0.1774725 0.22768234,0.19186154 0.22262679,0.20411153 0.21251593,0.2142225 0.20279347,0.22394484 0.19073793,0.22880595 0.17634926,0.22880583 0.16196018,0.22880595 0.14971019,0.22394484 0.13959926,0.2142225 0.12987687,0.20411153 0.12501577,0.19186154 0.12501592,0.1774725 0.12501577,0.16308379 0.12987687,0.15102825 0.13959926,0.14130583 0.14971019,0.13119493 0.16196018,0.12613938 0.17634926,0.12613916 M 0.24284926,0.2054725 C 0.24207121,0.20702819 0.24168233,0.20780597 0.2416826,0.20780583 L 0.2959326,0.2964725 0.20259926,0.24455583 C 0.20221014,0.24455594 0.2020157,0.24475038 0.20201593,0.24513917 L 0.17693259,0.34722251 0.14718259,0.2439725 0.14834926,0.2439725 0.14776592,0.24338917 0.05676592,0.29880584 0.10868259,0.20488916 0.11043259,0.20605583 C 0.11043245,0.20605597 0.11004356,0.20527819 0.10926592,0.2037225 L 0.10926592,0.20488916 0.00601591,0.1792225 0.10926592,0.15005583 0.10926592,0.15122249 C 0.10926578,0.1508338 0.10926578,0.15063936 0.10926592,0.15063916 0.10965467,0.15063936 0.10984912,0.15044491 0.10984926,0.15005583 L 0.05443258,0.05963915 0.14834926,0.11097249 0.14893259,0.11097249 0.17401593,0.00888915 0.20318259,0.11038916 C 0.20357125,0.11077828 0.20376569,0.11097273 0.20376593,0.11097249 0.20415458,0.11097273 0.20454347,0.11116717 0.20493259,0.11155582 L 0.2941826,0.05730582 0.24284926,0.14947249 C 0.24284899,0.15025047 0.24323788,0.15102825 0.24401593,0.15180583 L 0.34434927,0.17630583 0.24284926,0.2054725 M 0.17634926,0.23988917 C 0.1849046,0.23988927 0.19287682,0.23833372 0.20026593,0.2352225 0.20804347,0.23172261 0.21465457,0.2272504 0.22009926,0.22180583 0.22593234,0.21597263 0.23040456,0.20936152 0.23351593,0.2019725 0.23701566,0.19419487 0.23876566,0.18602821 0.23876593,0.1774725 0.23876566,0.16891712 0.23701566,0.1609449 0.23351593,0.15355583 0.23040456,0.14577825 0.22593234,0.13916715 0.22009926,0.13372249 0.21465457,0.12788938 0.20804347,0.12341716 0.20026593,0.12030582 0.19287682,0.11680606 0.1849046,0.11505606 0.17634926,0.11505582 0.16779351,0.11505606 0.15962685,0.11680606 0.15184926,0.12030582 0.14446019,0.12341716 0.13784909,0.12788938 0.13201592,0.13372249 0.12657132,0.13916715 0.1220991,0.14577825 0.11859926,0.15355583 0.115488,0.1609449 0.11393244,0.16891712 0.11393259,0.1774725 0.11393244,0.18602821 0.115488,0.19419487 0.11859926,0.2019725 0.1220991,0.20936152 0.12657132,0.21597263 0.13201592,0.22180583 0.13784909,0.2272504 0.14446019,0.23172261 0.15184926,0.2352225 0.15962685,0.23833372 0.16779351,0.23988927 0.17634926,0.23988917"
       style="font-size:0.58333337px;fill:#000000"
       id="path2995" />
  </g>
</svg>

<svg xmlns="http://www.w3.org/2000/svg" width="250" height="250" viewBox="0 0 0.34722222 0.34722222"><text x="-.032" y=".346" font-family="Energy Infrastructure" word-spacing="0" line-height="125%" letter-spacing="0" font-size=".056"><tspan x="-.032" y=".346" font-size=".59"/></text><g fill-rule="evenodd"><path d="m.176.126c.014 0 .026.005.036.015.001.001.015.022.015.036 0 .014-.005.027-.015.037-.001.001-.022.015-.036.015-.014 0-.027-.005-.037-.015-.001-.001-.015-.022-.015-.037 0-.014.005-.026.015-.036.001-.001.022-.015.037-.015m.067.079c-.0001.002-.0001.002-.0001.002l.054.089-.093-.052c0 0-.0001 0-.0001.0001l-.025.102-.03-.103h.0001l-.092.055.052-.094.002.0001c0 0 0-.0001-.0001-.002v.0001l-.103-.026.103-.029v.0001c0 0 0-.0001 0-.0001l-.055-.091.094.051.026-.102.029.102c0 0 .0001.0001.0001.0001s.0001 0 .0001.0001l.089-.054-.051.092c0 .0001 0 .002.0001.002l.1.024-.102.029m-.067.034c.009 0 .017-.002.024-.005.008-.003.014-.008.02-.013.006-.006.001-.012.013-.02.003-.008.005-.016.005-.024 0-.009-.002-.017-.005-.024-.003-.008-.008-.014-.013-.02-.005-.006-.012-.001-.02-.013-.007-.003-.015-.005-.024-.005-.009 0-.017.002-.024.005-.007.003-.014.008-.02.013-.005.005-.001.012-.013.02-.003.007-.005.015-.005.024 0 .009.002.017.005.024.003.007.008.014.013.02.006.005.012.001.02.013.008.003.016.005.024.005"/></g></svg>
